!!!COM: Bach, Johann Sebastian
!!!OPR: Joh. Seb. Bachs vierstimmige Choralgesänge
!!!XEN: Four-part Chorales
!!!OTL: 180. Wer Gott vertraut, hat wohl gebaut
!!!SCT: BWV 433
!!!SCA: Thematisch-systematisches Verzeichnis der musikalischen Werke Johann Sebastian Bach: Bach-Werke-Verzeichnis (Schmieder)
!!!YOR: Bach Gesellschaft Edition xxxix
!!!ENC: Steven Rasmussen
!!!CDT: 1685/3//-1750/7/28/
!!!OCY: Deutschland
!!!YEC: Copyright (c) 1994, 2000 Center for Computer Assisted Research in the Humanities
!!!YEM: Rights to all derivative editions reserved
!!!YEN: United States of America
**kern	**kern	**silbe	**kern	**silbe	**kern	**silbe
*I:[BASSO]	*I:[TENORE]	*I:[TENORE]	*I:[ALTO]	*I:[ALTO]	*I:[SOPRANO]	*I:[SOPRANO]
*>[A,A,B]	*>[A,A,B]	*	*>[A,A,B]	*	*>[A,A,B]	*
*>A	*>A	*	*>A	*	*>A	*
*clefF4	*clefGv2	*	*clefG2	*	*clefG2	*
*k[f#]	*k[f#]	*	*k[f#]	*	*k[f#]	*
*G:	*G:	*	*G:	*	*G:	*
*M4/4	*M4/4	*	*M4/4	*	*M4/4	*
=1-	=1-	=1-	=1-	=1-	=1-	=1-
4r	4r	.	4r	.	4r	.
8GL	4B	.	4d	.	4g	Werwer
8F#J	.	.	.	.	.	.
4E	4B	.	(8e	.	4g	Gottsich
.	.	.	4g)	.	.	.
4D	4d	.	.	.	4a	ver-ver-
.	.	.	8f#	.	.	.
=2	=2	=2	=2	=2	=2	=2
2G;	2d;	.	2g;	.	2b;	-traut,-lÃ¤sst
4r	4r	.	4r	.	4r	.
4GG	4d	.	4g	.	4b	hatauf
=3	=3	=3	=3	=3	=3	=3
4AA	4c	.	8gL	.	4cc	wohlJe-
.	.	.	8f#J	.	.	.
8BBL	4d	.	4g	.	4b	ge--sum
8CJ	.	.	.	.	.	.
2D;	2d;	.	(4g	.	2a;	-bautChrist,
.	.	.	4f#;)	.	.	.
=4	=4	=4	=4	=4	=4	=4
4r	4r	.	4r	.	4r	.
4D	8dL	.	4f#	.	4a	imdem
.	8cJ	.	.	.	.	.
4E	4B	.	(8f#	.	4g	Him-muss
.	.	.	4e)	.	.	.
4F#	4A	.	.	.	4a	-melder
.	.	.	8d	.	.	.
=5	=5	=5	=5	=5	=5	=5
4G	(8A	.	4d	.	4b	undHim-
.	4G)	.	.	.	.	.
4D	.	.	4d	.	4a	auf-mel
.	8F#	.	.	.	.	.
2E	8GL	.	4d	.	2g	Er-wer-
.	8B	.	.	.	.	.
.	8A	.	4c#	.	.	.
.	8GJ	.	.	.	.	.
=6	=6	=6	=6	=6	=6	=6
4D;	4F#;	.	4d;	.	4a;	-den,-den,
4F#	8dL	.	4d	.	4a	imdem
.	8cJ	.	.	.	.	.
4G	8BL	.	8dL	.	4b	Him-muss
.	8c#J	.	8eJ	.	.	.
4D	8dL	.	4f#	.	4a	-melder
.	8cnJ	.	.	.	.	.
=7	=7	=7	=7	=7	=7	=7
4E	4B	.	8f#L	.	4g	undHim-
.	.	.	8eJ	.	.	.
8BBL	8BL	.	8dL	.	4g	auf-mel
8CJ	8AJ	.	8eJ	.	.	.
2D	8AL	.	2d	.	2f#	Er-wer-
.	8BJ	.	.	.	.	.
.	4c	.	.	.	.	.
=8	=8	=8	=8	=8	=8	=8
1GG;	1B;	.	1d;	.	1g;	-den;-den.
=9:|!	=9:|!	=9:|!	=9:|!	=9:|!	=9:|!	=9:|!
*>B	*>B	*	*>B	*	*>B	*
4r	4r	.	4r	.	4r	.
8GL	4d	.	4g	.	4b	Da-
8F#J	.	.	.	.	.	.
8EL	8eL	.	(8g	.	4cc	-rum
8F#J	8dJ	.	4a)	.	.	.
4G	4d	.	.	.	4b	auf
.	.	.	8g	.	.	.
=10	=10	=10	=10	=10	=10	=10
2D;	2d;	.	8gL	.	2a;	dich
.	.	.	16f#L	.	.	.
.	.	.	16eJJ	.	.	.
.	.	.	4f#;	.	.	.
4r	4r	.	4r	.	4r	.
8D#L	4B	.	4f#	.	4a	all'
8BBJ	.	.	.	.	.	.
=11	=11	=11	=11	=11	=11	=11
8EL	4B	.	4f#	.	4g	Hoff-
8F#J	.	.	.	.	.	.
8GL	4B	.	4e	.	4g	-nung
8AJ	.	.	.	.	.	.
2B;	2B;	.	(4e	.	2f#;	ich
.	.	.	4d#;)	.	.	.
=12	=12	=12	=12	=12	=12	=12
4r	4r	.	4r	.	4r	.
4D#	8BL	.	4f#	.	4f#	ganz
.	8AJ	.	.	.	.	.
4E	8GL	.	8BL	.	4g	fest
.	8cJ	.	8eJ	.	.	.
4BB	8cL	.	4d#	.	4f#	und
.	8BJ	.	.	.	.	.
=13	=13	=13	=13	=13	=13	=13
4C	8BL	.	4e	.	4e	steif
.	8AJ	.	.	.	.	.
8GGL	8GL	.	8BL	.	4e	tu'
8AAJ	8F#J	.	8cJ	.	.	.
2BB	8F#L	.	2B	.	2d#	se-
.	8GJ	.	.	.	.	.
.	4A	.	.	.	.	.
=14	=14	=14	=14	=14	=14	=14
2E;	2G;	.	2B;	.	2e;	-tzen.
4r	4r	.	4r	.	4r	.
4E	8GL	.	8BL	.	4g	Herr
.	8AJ	.	8cJ	.	.	.
=15	=15	=15	=15	=15	=15	=15
8BBL	8BL	.	8dL	.	4g	Je-
8CJ	8AJ	.	8eJ	.	.	.
4D	16ALL	.	4d	.	4f#	-su
.	16BJ	.	.	.	.	.
.	8cJ	.	.	.	.	.
2GG;	(4c	.	2d;	.	2g;	Christ,
.	4B;)	.	.	.	.	.
=16	=16	=16	=16	=16	=16	=16
4r	4r	.	4r	.	4r	.
4G	8dL	.	4g	.	4b	mein
.	8eJ	.	.	.	.	.
8GL	8eL	.	4.a	.	4cc	Trost
8F#J	8dJ	.	.	.	.	.
4G	4d	.	.	.	4b	du
.	.	.	8g	.	.	.
=17	=17	=17	=17	=17	=17	=17
2D;	2d;	.	(4g	.	2a;	bist
.	.	.	4f#;)	.	.	.
4r	4r	.	4r	.	4r	.
4C	4d	.	4f#	.	4a	in
=18	=18	=18	=18	=18	=18	=18
4BB	4.d	.	4g	.	4g	To-
4FF#	.	.	4d	.	4a	-des-
.	8c	.	.	.	.	.
4GG	8BL	.	8dL	.	4b	-not
.	8cJ	.	8eJ	.	.	.
8DL	4d	.	8f#L	.	4a	und
8CJ	.	.	8eJ	.	.	.
=19	=19	=19	=19	=19	=19	=19
8BBL	8GL	.	8dL	.	2g	Schmer-
8AAJ	8AJ	.	8c	.	.	.
4GG	8BL	.	8d	.	.	.
.	16cL	.	8eJ	.	.	.
.	16BJJ	.	.	.	.	.
4D;	4A;	.	4f#;	.	4a;	-zen,
4F#	4d	in	[4a	in	4a	in
=20	=20	=20	=20	=20	=20	=20
4G	4d	To-	8a]	.	4b	To-
.	.	.	4g	To-	.	.
4D	4d	-des-	.	.	4a	-des-
.	.	.	4f#	-des-	.	.
4E	4.B	-not	.	.	4g	-not
.	.	.	8eL	-not	.	.
8BBL	.	.	8dJ	.	4g	und
8CJ	8A	.	8e	und	.	.
=21	=21	=21	=21	=21	=21	=21
2D	8AL	.	2d	.	2f#	Schmer-
.	8BJ	.	.	.	.	.
.	4c	.	.	.	.	.
2GG;	2B;	.	2d;	.	2g;	-zen.
==|!	==|!	==|!	==|!	==|!	==|!	==|!
*-	*-	*-	*-	*-	*-	*-
!!!RWG: Key is interpreted using the Humdrum key tool.
!!!END: 1994/08/08
!!!EMD: Converted from MuseData to Humdrum Dec 19, 2000, by Andreas Kornstaedt using muse2kern.
!!!EED: Craig Stuart Sapp
!!!EEV: 2024/03/31
!!!ONB: Some non-unicode characters
!!!filter-keyboard: satb2gs
